packages/katcn/src/icons/svg/head.svg

<svg width="24" height="25" viewBox="0 0 24 25" fill="none" xmlns="http://www.w3.org/2000/svg">
<path d="M20.9353 13.376L18.3731 7.87601C17.2891 5.77601 15.5153 4.07601 13.4458 3.47601C12.6575 3.07601 11.9676 2.97601 11.1793 2.97601C6.64618 2.97601 3 6.67601 3 11.276C3 13.076 3.59127 14.876 4.67527 16.276V20.276C4.67527 21.776 5.85782 22.976 7.336 22.976H11.672C13.1502 22.976 14.2342 21.776 14.2342 20.376V19.776H15.8109C17.2891 19.776 18.3731 18.576 18.3731 17.176V15.476L20.2455 14.876C20.5411 14.776 20.7382 14.576 20.8367 14.276C21.0338 13.876 21.0338 13.576 20.9353 13.376ZM17.1905 13.676C16.7964 13.776 16.5007 14.176 16.5007 14.576V17.076C16.5007 17.476 16.2051 17.676 15.9095 17.676H13.3473C12.756 17.676 12.3618 18.076 12.3618 18.676V20.276C12.3618 20.676 12.0662 20.876 11.7705 20.876H7.336C6.94182 20.876 6.64618 20.576 6.64618 20.176V15.976C6.64618 15.776 6.54764 15.476 6.44909 15.376C5.46364 14.276 4.97091 12.776 4.97091 11.376C4.97091 7.77601 7.73018 4.97601 11.1793 4.97601C11.672 4.97601 12.2633 5.07601 12.8545 5.27601C14.4313 5.77601 15.8109 7.07601 16.5993 8.67601L18.6687 13.176L17.1905 13.676Z" fill="black"/>
</svg>

<svg xmlns="http://www.w3.org/2000/svg" fill="none" viewBox="0 0 24 25"><path fill="#000" d="m20.935 13.376-2.562-5.5c-1.084-2.1-2.858-3.8-4.927-4.4-.788-.4-1.478-.5-2.267-.5-4.533 0-8.179 3.7-8.179 8.3 0 1.8.591 3.6 1.675 5v4c0 1.5 1.183 2.7 2.661 2.7h4.336c1.478 0 2.562-1.2 2.562-2.6v-.6h1.577c1.478 0 2.562-1.2 2.562-2.6v-1.7l1.872-.6q.444-.15.592-.6c.197-.4.197-.7.098-.9m-3.744.3c-.395.1-.69.5-.69.9v2.5c0 .4-.296.6-.592.6h-2.562c-.591 0-.985.4-.985 1v1.6c0 .4-.296.6-.591.6H7.336c-.394 0-.69-.3-.69-.7v-4.2c0-.2-.098-.5-.197-.6-.985-1.1-1.478-2.6-1.478-4 0-3.6 2.76-6.4 6.208-6.4.493 0 1.084.1 1.675.3 1.577.5 2.957 1.8 3.745 3.4l2.07 4.5z"/></svg>
